assets/icons/24px/outline/clarus-the-dogcow-24px.svg

<svg width="24" height="24" viewBox="0 0 24 24" fill="none" xmlns="http://www.w3.org/2000/svg">
<path d="M16.0218 9.5H13H12.6943C11.7166 9.5 10.8822 8.79317 10.7215 7.8288L10.5958 7.07497C10.5325 6.69521 10.5429 6.30681 10.6264 5.93098L10.838 4.97914C11.0476 4.03596 9.93041 3.37339 9.20328 4.00963L8.0106 5.05322C7.7571 5.27503 7.36125 5.18781 7.22445 4.88L6.73197 3.77193C6.3403 2.89068 5.05117 3.01974 4.84197 3.96114L4.5 5.5L2.72615 8.45642C2.1286 9.45233 2.69806 10.7396 3.83693 10.9674C3.94538 10.9891 4.0557 11 4.1663 11H5.5C6.05228 11 6.5 11.4477 6.5 12V17.5858C6.5 17.851 6.39466 18.1053 6.20713 18.2929L5.70715 18.7929C5.31662 19.1834 5.34146 19.808 5.86527 19.9831C7.16988 20.4191 9.21739 20.3209 9.8599 19.6884C9.97053 19.5795 10 19.4192 10 19.2639V16C10 15.4477 10.4477 15 11 15H13.2639C13.4192 15 13.5723 15.0361 13.7111 15.1056L14.4433 15.4717C15.0909 15.7955 15.5 16.4574 15.5 17.1814C15.5 17.3882 15.4329 17.5894 15.3088 17.7549L14.5204 18.8062C14.2218 19.2043 14.2743 19.7639 14.7402 19.9388C16.035 20.425 18.1965 20.3415 18.8599 19.6884C18.9705 19.5795 19 19.4192 19 19.2639V12.677C19 12.2681 19.2623 11.915 19.5884 11.6683C20.9238 10.6582 21.1238 8.42752 20.903 6.69149C20.8056 5.92535 19.9038 5.76653 19.4297 6.37616L17.6005 8.72788C17.2216 9.21505 16.639 9.5 16.0218 9.5Z" stroke="white" stroke-width="2"/>
<path d="M7.75 7.25012C7.75 7.66434 7.41421 8.00012 7 8.00012C6.58579 8.00012 6.25 7.66434 6.25 7.25012C6.25 6.83591 6.58579 6.50012 7 6.50012C7.41421 6.50012 7.75 6.83591 7.75 7.25012Z" fill="white"/>
<path d="M7 15L8.02513 13.9749C8.93842 13.0616 8.29159 11.5 7 11.5V15Z" fill="white" stroke="white" stroke-linecap="round"/>
<path d="M16.342 9.94772L16.5 9H11.5L12.5057 10.6761C12.8193 11.1989 13.3464 11.5577 13.9477 11.658C15.0812 11.8469 16.1531 11.0812 16.342 9.94772Z" fill="white" stroke="white" stroke-linecap="round"/>
</svg>

<svg width="24" height="24" fill="none" xmlns="http://www.w3.org/2000/svg"><path d="M16.022 9.5h-3.328a2 2 0 0 1-1.973-1.671l-.125-.754a3 3 0 0 1 .03-1.144l.212-.952c.21-.943-.908-1.606-1.635-.97L8.011 5.054a.5.5 0 0 1-.787-.173l-.492-1.108c-.392-.881-1.68-.752-1.89.19L4.5 5.5 2.726 8.456A1.68 1.68 0 0 0 4.166 11H5.5a1 1 0 0 1 1 1v5.586a1 1 0 0 1-.293.707l-.5.5c-.39.39-.366 1.015.158 1.19 1.305.436 3.352.338 3.995-.295.11-.108.14-.269.14-.424V16a1 1 0 0 1 1-1h2.264c.155 0 .308.036.447.106l.732.366a1.912 1.912 0 0 1 1.057 1.71.956.956 0 0 1-.191.573l-.789 1.051c-.298.398-.246.958.22 1.133 1.295.486 3.457.402 4.12-.25.11-.11.14-.27.14-.425v-6.587c0-.409.262-.762.588-1.009 1.336-1.01 1.536-3.24 1.315-4.977-.097-.766-1-.924-1.473-.315L17.6 8.728a2 2 0 0 1-1.578.772z" stroke="#fff" stroke-width="2"/><path d="M7.75 7.25a.75.75 0 1 1-1.5 0 .75.75 0 0 1 1.5 0z" fill="#fff"/><path d="M7 15l1.025-1.025C8.938 13.062 8.292 11.5 7 11.5V15zm9.342-5.052L16.5 9h-5l1.006 1.676a2.08 2.08 0 0 0 3.836-.728z" fill="#fff" stroke="#fff" stroke-linecap="round"/></svg>
